X:1
T:Title
%%score 1 2 3
L:1/8
M:3/2
K:C
V:1 treble nm="Part_1"
V:2 treble-8 nm="Part_2"
V:3 treble-8 nm="Part_3"
V:1
 E8 F4 | G6 E2 F4 | E4 D4 G4 | G4 A6 G2 | G6 F2 F2 E2 | G4 z4 F4 | E6 D2 E2 C2 | E8 z4 | F6 E2 D4 | %9
 E2 F2 G6 E2 | F4 E6 D2 | C2 D4 D2 C2 B,2 | D8 z4 | F6 E2 D4 | C4 F4 E2 D2 | F4 E4 D4 | C4 F6 E2 | %17
 E6 D2 D2 C2 | E4 z4 F4 | G4 F2 G2 A4 | A2 G2 F2 D2 F2 E2 | D2 E4 F2 D2 C2 | E12 |] %23
V:2
 B8 c4 | d6 B2 c4 | B4 A4 d4 | d4 e6 d2 | d6 c2 c2 B2 | d4 z4 c4 | B6 A2 B2 G2 | B8 z4 | c6 B2 A4 | %9
 B2 c2 d6 B2 | c4 B6 A2 | G2 A4 A2 G2 ^F2 | A8 z4 | c6 B2 A4 | G4 c4 B2 A2 | c4 B4 A4 | G4 c6 B2 | %17
 B6 A2 A2 G2 | B4 z4 c4 | d4 c2 d2 e4 | e2 d2 c2 A2 c2 B2 | A2 B4 c2 A2 G2 | B12 |] %23
V:3
 E4 G4 A4 | G8 F4 | G2 E2 F4 G4 | B4 c8 | B4 A8 | G8 A4 | G6 E2 F4 | E8 z4 | A6 G2 F4 | %9
 G2 A2 B4 G4 | A4 G6 F2 | E2 F4 D2 E4 | D8 z4 | A6 G2 F4 | E4 F4 G4 | F2 A2 G2 E2 F4 | E4 A6 G2 | %17
 G4 F8 | E4 G4 A4 | G4 A2 B2 c4 | A2 B2 A2 F2 A2 G2 | F2 E2 G2 A2 F4 | E12 |] %23

